X:333
T: WER WILL UNTER DIE SOLDATEN
N: F0574
O: Europa, Mitteleuropa, Deutschland
R: Soldaten -, Kinder -, Kniereiter - Lied
M: 2/4
L: 1/16
K: D
D2F2 | A4A4 | B4c4 | d8 | A2z2
A2B2 | A3GG2G2 | G4
B2A2 | A3FF2F2 | F2z2
F2A2 | d4d4 | e4e4 | f8 | e2z2
B2e2 | d4d4 | d2c2B2c2 | d6z2 | z4
A2d2 | d3cc2c2 | c4
c2B2 | B3AA2A2 | A4
A2A2 | A2e2A2A2 | A2z2
A2A2 | A2d2A2A2 | A2z2
A2d2 | d3cc2c2 | c4
c2B2 | B3AA2A2 | A2z2
A2A2 | B2B2c2c2 | d2d2e2e2 | f8- | f2g2
B2e2 | d2z2F2B2 | A2z2E2F2 | D4z4 | z4

@@@ Tune index: 5764
